X: 58
T: No_62_Song_of_Owl_Dance_(a).krn
N: Derived from No_62_Song_of_Owl_Dance_(a).krn
%%abc-version 2.0
%%abcx-abcm2ps-target-version 5.9.1 (29 Sep 2008)
%%abc-creator hum2abc beta
%%abcx-conversion-date 2019/03/15 08:27:55
%%humdrum-veritas 2988815791
%%humdrum-veritas-data 3034152360
%%linebreak <none>
%%barnumbers 0
L: 1/8
M: 2/4
%%staves {1 2}
V: 1 clef=bass
V: 2 clef=bass
K: G
[V:1] [K:clef=bass][M:2/4]E3/B,/ B,3/E/ | 
[V:2] [K:clef=bass][M:2/4](3G,, z G,, (3G,, z G,, | 
[V:1] E4 | 
[V:2] z4 | 
[V:1] [M:3/4]EB,/B,/ G,G, G,G,/ z/ | 
[V:2] [M:3/4]z6 | 
[V:1] [M:2/4]E3/B,/ B,B, | 
[V:2] [M:2/4]z4 | 
[V:1] B,2(3A,A,G, | 
[V:2] z4 | 
[V:1] [M:3/4]E,E, E, z E,3/E,/ | 
[V:2] [M:3/4]z6 | 
[V:1] G,G,G,2E, z | 
[V:2] z6 | 
[V:1] [M:2/4]G,/E,E,/ B,,3/C,/ | 
[V:2] [M:2/4]z4 | 
[V:1] [M:3/4]B,,2B,, z E,3/E,/ ]|:  
[V:2] [M:3/4]z6 ]|:  
[V:1] [M:4/4]G,G,G,2E, z G,/G,E,/ | 
[V:2] [M:4/4]z8 | 
[V:1] [M:2/4]E,2E, z | 
[V:2] [M:2/4]z4 | 
[V:1] B,,E,E,2 | 
[V:2] z4 | 
[V:1] B,,E,E,2 | 
[V:2] z4 | 
[V:1] [M:3/4]E,2z2(3B,B,A, | 
[V:2] [M:3/4]z6 | 
[V:1] G,G, G, z B,3/D/ | 
[V:2] z6 | 
[V:1] B,B,B,2(3A,A,G, | 
[V:2] z6 | 
[V:1] E,E, E, z E,3/E,/ | 
[V:2] z6 | 
[V:1] [M:4/4]G,G,G,2E, z G,/G,E,/ | 
[V:2] [M:4/4]z8 | 
[V:1] [M:3/4]B,,B,, B,, z E,3/E,/ | 
[V:2] [M:3/4]z6 | 
[V:1] [M:4/4]G,G,G,2E, z G,/G,E,/ | 
[V:2] [M:4/4]z8 | 
[V:1] [M:2/4]E,2E, z | 
[V:2] [M:2/4]z4 | 
[V:1] B,,E,E,2 | 
[V:2] z4 | 
[V:1] B,,E,E,2 | 
[V:2] z4 | 
[V:1] E,2z2 :|]  
[V:2] z4 :|]  



